X:1
T:Airedale, 87.87 D
T:Airedale, 87.87 D
T:Charles Villiers Stanford, before 1905
T:Public Domain Courtesy of the Cyber Hymnal™
C:Charles Villiers Stanford, before 1905
Z:Public Domain
Z:Courtesy of the Cyber Hymnal™
%%score ( 1 2 ) ( 3 4 )
L:1/8
Q:1/4=115
M:3/4
K:Bb
V:1 treble 
V:2 treble 
V:3 bass 
V:4 bass 
V:1
 [Fd]4 c2 | [CF]4 (GA) | [FB]2 [Gc]2 [^FA]2 | [DG]4 [DG]2 | [Ge]4 [Fd]2 | B4 [EG]2 | [CF]6 | %7
 [Ff]4 [ce]2 | [GB]4 [FA]2 | (G2 B2) [FA]2 | [EG]4 [DF]2 | G4 [EA]2 | (B2 d2) [Ec]2 | [DB]4 [DA]2 | %14
 [B,G]6 | [B,G]4 [CA]2 | [DB]2 [Fc]2 [Dd]2 | [Gc]2 [FB]2 [FA]2 | G4 [CF]2 | [EG]4 [GB]2 | %20
 (c2 d2) [Ge]2 | [Fd]2 [Ec]2 [DB]2 | [Fc]6 | c4 [Fc]2 | (f2 d2) [Fc]2 | [GB]2 [EG]2 [CF]2 | %26
 [B,E]4 [A,D]2 | G4 [EA]2 | [DB]2 [Fd]2 [Ec]2 | F4 (GA) | [DB]6 |] %31
V:2
 x4 (ED) | x4 F2 | x6 | x6 | x6 | (E2 D2) x2 | x6 | x6 | x6 | E4 x2 | x6 | (D2 C2) x2 | F4 x2 | %13
 x6 | x6 | x6 | x6 | x6 | (E2 D2) x2 | x6 | G4 x2 | x6 | x6 | (A2 G2) x2 | F4 x2 | x6 | x6 | %27
 (D2 C2) x2 | x6 | (C2 D2) E2 | x6 |] %31
V:3
 [B,,B,]4 [E,G,]2 | [F,A,]4 (B,C) | [D,D]2 [C,E]2 [D,D]2 | [G,=B,]4 [G,B,]2 | (C2 B,2) [D,A,]2 | %5
 [G,B,]4 [C,C]2 | [F,A,]6 | [D,A,]4 (B,C) | [G,D]2 [E,E]2 [F,C]2 | B,4 [A,,C]2 | B,4 [D,A,]2 | %11
 [E,G,]4 [C,C]2 | (D2 C2) [C,G,]2 | G,4 [D,^F,]2 | [G,,G,]6 | ([E,G,]2 [D,F,]2) [C,E,]2 | %16
 F,4 [B,,B,]2 | [C,E]2 [D,D]2 [F,C]2 | [G,B,]4 [A,C]2 | B,4 [E,G,]2 | [E,A,]2 [D,B,]2 [C,C]2 | %21
 [D,A,]2 [E,G,]2 [G,B,]2 | [F,A,]6 | (C2 B,2) A,2 | [D,B,]4 [D,A,]2 | (G,2 B,2) [F,A,]2 | %26
 G,4 [D,F,]2 | [E,G,]4 [C,C]2 | B,4 [E,G,]2 | A,4 [C,C]2 | [B,,F,]6 |] %31
V:4
 x6 | x4 E,2 | x6 | x6 | C,4 x2 | x6 | x6 | x4 D,2 | x6 | (G,2 G,,2) x2 | (B,,2 C,2) x2 | x6 | %12
 B,,4 x2 | (D,2 C,2) x2 | x6 | x6 | (B,,2 A,,2) x2 | x6 | x6 | (G,2 F,2) x2 | x6 | x6 | x6 | %23
 F,4 (F,E,) | x6 | E,4 x2 | (B,,2 C,2) x2 | x6 | (G,2 D,2) x2 | (E,2 D,2) x2 | x6 |] %31

